X:190
T: N N IST EIN SCHOENES STAEDTCHEN
N: E0773
O: Europa, Mitteleuropa, Deutschland, Westfalen
R: Abschieds - Lied, Wander - Lied, Liebe
M: 4/4
L: 1/8
K: F
 | FGABc2f2 | d2d2c2A2 |
B3GF2FA | c2cBA2z2 |
c3AG2A2 | BABcA2z2 |
c2f2d2cB | A2G2F2z2

@@@ Tune index: 4503
